X: 69
P: Longways for &c.
M: 6/4
L: 1/4
K: Am
V: 1
cBA ceB | cBA ^GBE | ABc BcA | B>A^G/F/ E2B |\
edc def | edc  BdG | cde dcB | G>cB/d/  c2 :|
|: B |\
cec BdB | cec  BdB  | ceA ^GEG | A>EC/B,/ A,2 :|
V: 2 clef=bass middle=d
e |\
a3  zze | a3  e2d | cBA def | e3 ^g2e |\
cBA B3  | cBA G2B | ABc g3  | G3  c2 :|
|: g |\
edc zze | dcB G2f | f3  def | e3 ^G3 |\

